build/images/page-3/slide-content-bg.svg

<svg width="356" height="66" viewBox="0 0 356 66" fill="none" xmlns="http://www.w3.org/2000/svg">
<path d="M116.958 63.5362V39.6191" stroke="#00A79E" stroke-width="2.03453" stroke-miterlimit="10" stroke-linecap="round" stroke-linejoin="round"/>
<path d="M113.569 32.6633C113.569 36.6778 116.959 39.9315 116.959 39.9315C116.959 39.9315 120.349 36.6778 120.349 32.6633C120.349 28.6487 116.959 25.395 116.959 25.395C116.959 25.395 113.569 28.6487 113.569 32.6633Z" stroke="#00A79E" stroke-width="2.03453" stroke-miterlimit="10" stroke-linecap="round" stroke-linejoin="round"/>
<path d="M121.49 40.5618C118.191 42.8445 117.441 47.4894 117.441 47.4894C117.441 47.4894 122.046 48.4263 125.351 46.1436C128.65 43.8609 129.4 39.2161 129.4 39.2161C129.4 39.2161 124.789 38.2791 121.49 40.5618Z" stroke="#00A79E" stroke-width="2.03453" stroke-miterlimit="10" stroke-linecap="round" stroke-linejoin="round"/>
<path d="M121.49 51.5037C118.191 53.7864 117.441 58.4313 117.441 58.4313C117.441 58.4313 122.046 59.3682 125.351 57.0855C128.65 54.8028 129.4 50.1579 129.4 50.1579C129.4 50.1579 124.789 49.221 121.49 51.5037Z" stroke="#00A79E" stroke-width="2.03453" stroke-miterlimit="10" stroke-linecap="round" stroke-linejoin="round"/>
<path d="M112.91 40.5618C116.209 42.8445 116.958 47.4894 116.958 47.4894C116.958 47.4894 112.353 48.4263 109.049 46.1436C105.75 43.8609 105 39.2161 105 39.2161C105 39.2161 109.611 38.2791 112.91 40.5618Z" stroke="#00A79E" stroke-width="2.03453" stroke-miterlimit="10" stroke-linecap="round" stroke-linejoin="round"/>
<path d="M112.91 51.5037C116.209 53.7864 116.958 58.4313 116.958 58.4313C116.958 58.4313 112.353 59.3682 109.049 57.0855C105.75 54.8028 105 50.1579 105 50.1579C105 50.1579 109.611 49.221 112.91 51.5037Z" stroke="#00A79E" stroke-width="2.03453" stroke-miterlimit="10" stroke-linecap="round" stroke-linejoin="round"/>
<path d="M53.9364 63.1725V15.009" stroke="#00A79E" stroke-width="2.03453" stroke-miterlimit="10" stroke-linecap="round" stroke-linejoin="round"/>
<path d="M50.8303 8.64931C50.8303 12.3232 53.9307 15.2986 53.9307 15.2986C53.9307 15.2986 57.031 12.3232 57.031 8.64931C57.031 4.97544 53.9307 2 53.9307 2C53.9307 2 50.8303 4.97544 50.8303 8.64931Z" stroke="#00A79E" stroke-width="2.03453" stroke-miterlimit="10" stroke-linecap="round" stroke-linejoin="round"/>
<path d="M58.0759 15.8722C55.055 17.9618 54.3736 22.2035 54.3736 22.2035C54.3736 22.2035 58.5869 23.061 61.6078 20.9714C64.6286 18.8817 65.3101 14.64 65.3101 14.64C65.3101 14.64 61.0967 13.7826 58.0759 15.8722Z" stroke="#00A79E" stroke-width="2.03453" stroke-miterlimit="10" stroke-linecap="round" stroke-linejoin="round"/>
<path d="M58.0759 26.7519C55.055 28.8415 54.3736 33.0832 54.3736 33.0832C54.3736 33.0832 58.5869 33.9406 61.6078 31.851C64.6286 29.7614 65.3101 25.5197 65.3101 25.5197C65.3101 25.5197 61.0967 24.6622 58.0759 26.7519Z" stroke="#00A79E" stroke-width="2.03453" stroke-miterlimit="10" stroke-linecap="round" stroke-linejoin="round"/>
<path d="M50.2341 15.8722C53.255 17.9618 53.9364 22.2035 53.9364 22.2035C53.9364 22.2035 49.7231 23.061 46.7022 20.9714C43.6814 18.8817 43 14.64 43 14.64C43 14.64 47.2133 13.7826 50.2341 15.8722Z" stroke="#00A79E" stroke-width="2.03453" stroke-miterlimit="10" stroke-linecap="round" stroke-linejoin="round"/>
<path d="M50.2341 26.7519C53.255 28.8415 53.9364 33.0832 53.9364 33.0832C53.9364 33.0832 49.7231 33.9406 46.7022 31.851C43.6814 29.7614 43 25.5197 43 25.5197C43 25.5197 47.2133 24.6622 50.2341 26.7519Z" stroke="#00A79E" stroke-width="2.03453" stroke-miterlimit="10" stroke-linecap="round" stroke-linejoin="round"/>
<path d="M58.0759 38.5797C55.055 40.6694 54.3736 44.9111 54.3736 44.9111C54.3736 44.9111 58.5869 45.7685 61.6078 43.6789C64.6286 41.5892 65.3101 37.3475 65.3101 37.3475C65.3101 37.3475 61.0967 36.4901 58.0759 38.5797Z" stroke="#00A79E" stroke-width="2.03453" stroke-miterlimit="10" stroke-linecap="round" stroke-linejoin="round"/>
<path d="M50.2341 38.5797C53.255 40.6694 53.9364 44.9111 53.9364 44.9111C53.9364 44.9111 49.7231 45.7685 46.7022 43.6789C43.6814 41.5892 43 37.3475 43 37.3475C43 37.3475 47.2133 36.4901 50.2341 38.5797Z" stroke="#00A79E" stroke-width="2.03453" stroke-miterlimit="10" stroke-linecap="round" stroke-linejoin="round"/>
<path d="M89.4375 63.2182V48.4319" stroke="#00A79E" stroke-width="2.03453" stroke-miterlimit="10" stroke-linecap="round" stroke-linejoin="round"/>
<path d="M76.0083 62.9001V53.7637" stroke="#00A79E" stroke-width="2.03453" stroke-miterlimit="10" stroke-linecap="round" stroke-linejoin="round"/>
<path d="M99.42 63.2181V55.825" stroke="#00A79E" stroke-width="2.03453" stroke-miterlimit="10" stroke-linecap="round" stroke-linejoin="round"/>
<path d="M19.3101 54.5361V62.7129" stroke="#00A79E" stroke-width="2.03453" stroke-miterlimit="10" stroke-linecap="round" stroke-linejoin="round"/>
<path d="M27.5099 57.4207V62.7128" stroke="#00A79E" stroke-width="2.03453" stroke-miterlimit="10" stroke-linecap="round" stroke-linejoin="round"/>
<path d="M174 63.0195C174 56.5746 179.224 51.3562 185.663 51.3562C192.102 51.3562 197.327 56.5803 197.327 63.0195H174Z" fill="#00A79E"/>
<path opacity="0.56" d="M227.586 63.0195C226.814 61.3671 226.382 59.5273 226.382 57.5853C226.382 50.4818 232.14 44.7239 239.244 44.7239C241.328 44.7239 243.292 45.2236 245.036 46.1038C247.682 39.7157 253.968 35.2241 261.31 35.2241C268.169 35.2241 274.103 39.1478 277.016 44.8659C277.64 44.775 278.276 44.7239 278.924 44.7239C286.027 44.7239 291.785 50.4818 291.785 57.5853C291.785 59.5273 291.354 61.3671 290.581 63.0195H227.586Z" fill="#00A79E"/>
<path d="M221.453 63.6611C220.528 61.685 220.011 59.4762 220.011 57.1481C220.011 48.642 226.905 41.7485 235.411 41.7485C237.904 41.7485 240.26 42.3447 242.344 43.4009C245.513 35.7522 253.042 30.3691 261.838 30.3691C270.049 30.3691 277.163 35.0651 280.644 41.9188C281.388 41.8109 282.149 41.7485 282.927 41.7485C291.433 41.7485 298.327 48.642 298.327 57.1481C298.327 59.4762 297.81 61.6794 296.884 63.6611H221.453Z" stroke="#00A79E" stroke-width="2.03453" stroke-miterlimit="10" stroke-linecap="round" stroke-linejoin="round"/>
<path d="M260.361 63.0195V45.7971" stroke="#00A79E" stroke-width="2.03453" stroke-miterlimit="10" stroke-linecap="round" stroke-linejoin="round"/>
<path d="M247.347 63.0195V51.9922" stroke="#00A79E" stroke-width="2.03453" stroke-miterlimit="10" stroke-linecap="round" stroke-linejoin="round"/>
<path d="M260.361 53.5877L265.318 49.1189" stroke="#00A79E" stroke-width="2.03453" stroke-miterlimit="10" stroke-linecap="round" stroke-linejoin="round"/>
<path d="M260.361 58.7039L265.318 54.2351" stroke="#00A79E" stroke-width="2.03453" stroke-miterlimit="10" stroke-linecap="round" stroke-linejoin="round"/>
<path d="M1.99999 64L354 64" stroke="#00A79E" stroke-width="2.03453" stroke-miterlimit="10" stroke-linecap="round" stroke-linejoin="round"/>
</svg>

<svg width="356" height="66" viewBox="0 0 356 66" fill="none" xmlns="http://www.w3.org/2000/svg"><path d="M116.958 63.536V39.62m-3.389-6.957c0 4.015 3.39 7.269 3.39 7.269s3.39-3.254 3.39-7.269c0-4.014-3.39-7.268-3.39-7.268s-3.39 3.254-3.39 7.268zm7.921 7.899c-3.299 2.282-4.049 6.927-4.049 6.927s4.605.937 7.91-1.345c3.299-2.283 4.049-6.928 4.049-6.928s-4.611-.937-7.91 1.346zm0 10.942c-3.299 2.282-4.049 6.927-4.049 6.927s4.605.937 7.91-1.345c3.299-2.283 4.049-6.928 4.049-6.928s-4.611-.937-7.91 1.346zm-8.58-10.942c3.299 2.282 4.048 6.927 4.048 6.927s-4.605.937-7.909-1.345C105.75 43.86 105 39.216 105 39.216s4.611-.937 7.91 1.346zm0 10.942c3.299 2.282 4.048 6.927 4.048 6.927s-4.605.937-7.909-1.345C105.75 54.803 105 50.158 105 50.158s4.611-.937 7.91 1.346zM53.936 63.172V15.01M50.83 8.65c0 3.673 3.1 6.649 3.1 6.649s3.101-2.976 3.101-6.65c0-3.674-3.1-6.649-3.1-6.649s-3.1 2.975-3.1 6.65zm7.246 7.222c-3.021 2.09-3.702 6.331-3.702 6.331s4.213.858 7.234-1.232c3.02-2.09 3.702-6.331 3.702-6.331s-4.213-.857-7.234 1.232zm0 10.88c-3.021 2.09-3.702 6.331-3.702 6.331s4.213.858 7.234-1.232c3.02-2.09 3.702-6.331 3.702-6.331s-4.213-.858-7.234 1.232zm-7.842-10.88c3.021 2.09 3.702 6.331 3.702 6.331s-4.213.858-7.234-1.232C43.682 18.881 43 14.64 43 14.64s4.213-.857 7.234 1.232zm0 10.88c3.021 2.09 3.702 6.331 3.702 6.331s-4.213.858-7.234-1.232C43.682 29.761 43 25.52 43 25.52s4.213-.858 7.234 1.232zm7.842 11.828c-3.021 2.09-3.702 6.331-3.702 6.331s4.213.858 7.234-1.232c3.02-2.09 3.702-6.332 3.702-6.332s-4.213-.857-7.234 1.233zm-7.842 0c3.021 2.09 3.702 6.331 3.702 6.331s-4.213.858-7.234-1.232C43.682 41.589 43 37.347 43 37.347s4.213-.857 7.234 1.233zm39.204 24.638V48.432M76.008 62.9v-9.136m23.412 9.454v-7.393m-80.11-1.289v8.177m8.2-5.293v5.293" stroke="#00A79E" stroke-width="2.035" stroke-miterlimit="10" stroke-linecap="round" stroke-linejoin="round"/><path d="M174 63.02c0-6.445 5.224-11.664 11.663-11.664s11.664 5.224 11.664 11.663H174z" fill="#00A79E"/><path opacity=".56" d="M227.586 63.02a12.8 12.8 0 01-1.204-5.435c0-7.103 5.758-12.861 12.862-12.861 2.084 0 4.048.5 5.792 1.38 2.646-6.388 8.932-10.88 16.274-10.88 6.859 0 12.793 3.924 15.706 9.642.624-.091 1.26-.142 1.908-.142 7.103 0 12.861 5.758 12.861 12.861 0 1.942-.431 3.782-1.204 5.434h-62.995z" fill="#00A79E"/><path d="M221.453 63.661a15.327 15.327 0 01-1.442-6.513c0-8.506 6.894-15.4 15.4-15.4 2.493 0 4.849.597 6.933 1.653 3.169-7.649 10.698-13.032 19.494-13.032 8.211 0 15.325 4.696 18.806 11.55.744-.108 1.505-.17 2.283-.17 8.506 0 15.4 6.893 15.4 15.4 0 2.327-.517 4.53-1.443 6.512h-75.431zm38.908-.641V45.797M247.347 63.02V51.992m13.014 1.596l4.957-4.47m-4.957 9.586l4.957-4.469M2 64h352" stroke="#00A79E" stroke-width="2.035" stroke-miterlimit="10" stroke-linecap="round" stroke-linejoin="round"/></svg>
